X: 79
% Old value - X: 1
T: Paddy Fahey's
R: reel
M: 4/4
L: 1/8
K: G
|:G,2 B,D GBdB|c2 ag fgdc|BG (3GGG BcdB|cBAG FDCA,|
G,2 B,D GBdB|c2 ag fgdc|BG (3GGG BcdB|1 cAFA G2 DB,:|2 cAFA G2 (3Bcd||
|:g2fa gdBG|FGAB c2 Bc|Aaag a3g|fdad bdad|
(3ggg fa gdBG|FGAB c2 Bc|d (3ggg defd|1 cAFA G2 Bc:|2 cAFA G2 DB,||

